X:1
T:Puisque ton dard
T:Lefe
T:Source : Livre XVI de 29 chansons nouvelles à 4 parties---Paris---P.Attaingnant---1545. Editor : André Vierendeels (29/06/18) Notes : Original clefs : C1, C3, C3, F3 Original note values have been halved Original note values have been quartered in 3-beat measures Editorial accidentals above the staff Square brackets indicate ligatures 
T:#
T:Puisque ton dard
T:©
T:©
T:©
T:©
C:Lefe
Z:©
%%score [ 1 2 3 4 ]
L:1/8
Q:1/4=120
M:2/2
K:C
V:1 treble nm="Soprano" snm="S"
V:2 treble nm="Alto" snm="A"
V:3 treble-8 nm="Tenor" snm="T"
V:4 bass nm="Bass" snm="B"
V:1
 G4 c2 c2 | B4 A4 | c2 c2 dcBA | G2 c4 B2- | BA A4 G2 | A4 z2 E2- | E2 E2 F4 | G2 G4 G2 | cBAG A4 | %9
w: Puis- que ton|dard m'a|mis soubz ta _ _ _|_ puis- san-||ce, et|_ qu'en ton|parc, et que|ton _ _ _ _|
 B2 c2 c2 c2 | B2 d3 c c2- |[M:2/4] c2 B2 |[M:3/4] c4 z2 | G2 F2 F2 | E4 z2 | G2 A2 A2 | B4 B2 | %17
w: parc me con- gnois|loy- * * *|* al|cerf,|fais Cu- pi-|do,|fais Cu- pi-|do que|
 c4 B2 | A2 A4 |[M:2/4]"^#" G4 |:[M:2/2] z4 G4 | c2 c2 B4 | A4 c2 c2 | dcBA G2 c2- | c2 B3 A A2- | %25
w: ne sois|plus tant|serf,|cest|grand tra- vail|day- mer sans|iou- * * * * ys-|* * * san-|
"^#" A2 G2 !fermata!A4 :| %26
w: * * ce.|
V:2
 E4 G2 G2 | G4 z2 F2 | E2 E2 G4- | G2 E4 F2- | F2 D2 E4 | C6 C2 | C4 D4 | E2 E2 D2 E2- | EFGE F4 | %9
w: Puis- que ton|dard m'a|mis soubz ta|_ puis- san-|* * ce,|et qu'en|ton _|parc, et qu'en ton|_ _ _ _ parc|
 G2 G4 G2 | G4 D2 G2- |[M:2/4] GF G2 |[M:3/4] E4 z2 | E2 D2 D2 | B,4 z2 | E2 E2 F2 | G4 G2 | %17
w: me con- gnois|loy- * *|* * al|cerf,|fais Cu- pi-|do,,|fais Cu- pi-|do que|
 G4 G2 |"^#" E2 F4 |[M:2/4] E4 |:[M:2/2] z4 E4 | G2 G2 G4 | z2 F2 E2 E2 | G6 E2- | E2 F4 D2 | %25
w: ne sois|plus tant|serf,|cest|grand tra- vail|day- mer sans|iou- ys-|* san- *|
 E4 !fermata!C4 :| %26
w: * ce.|
V:3
 c4 e2 e2 | d4 z2 d2 | c2 c2 B2 d2 | e4 c2 d2- | dcBA B4 | A8 | z2 A4 A2 | c4 G4 | z2 c4 c2 | e8 | %10
w: Puis- que ton|dard m'a|mis soubz ta puis-|san- * *||ce,|et qu'en|ton parc,|et qu'en|ton|
 d2 g2 f2 e2 |[M:2/4] d2 d2 |[M:3/4] c4 z2 | c2 A2 A2 | G4 z2 | B2 c2 c2 | d4 d2 | e4 d2 | %18
w: parc, me con- gnois|loy- al|cerf,|fais Cu- pi-|do,|fais Cu- pi-|do que|ne sois|
"^#" c2 d4 |[M:2/4] B4 |:[M:2/2] z4 c4 | e2 e2 d4 | z2 d2 c2 c2 | B2 d2 e3 d | cB d3 c BA | %25
w: plus tant|serf,|cest|grand tra- vail|day- mer sans|iou- ys- san- *||
 B4 !fermata!A4 :| %26
w: * ce.|
V:4
 C,8 | G,2 G,2 F,2 D,2 | A,2 A,2 G,3 F, | E,D,C,B,, A,,2 D,2 | F,4 E,4 | A,,4 z2 A,,2- | %6
w: Puis-|que ton dard m'a|mis soubz ta puis-|san- * * * * *||ce, et|
 A,,2 A,,2 D,4 | C,4 z2 C,2- | C,2 C,2 F,4 | E,2 C,2 C,2 C,2 | G,3 A, B,2 C2 |[M:2/4] G,4 | %12
w: _ qu'en ton|parc, et|_ qu'en ton|parc me con- gnois|loy- * * *|al|
[M:3/4] C,4 z2 | C,2 D,2 D,2 |"^-natural" E,4 z2 | E,2 A,2 A,2 | G,4 G,2 | C4 G,2 | A,2 D,4 | %19
w: cerf,|fais Cu- pi-|do,|fais Cu- pi-|do que|ne sois|plus tant|
[M:2/4] E,4 |:[M:2/2] z4 C,4- | C,4 G,2 G,2 | F,2 D,2 A,2 A,2 | G,3 F, E,D,C,B,, | A,,2 D,2 F,4 | %25
w: serf,|cest|_ grand tra-|vail day- mer sans|iou- * * * * *|ys- san- *|
 E,4 !fermata!A,,4 :| %26
w: * ce.|

